!!!!SEGMENT: pl-kk--kk-i-382--087_anonim--offertorium-nro-28.krn
!!!cenid: 18xx:1589
!!!COM: Anonim
!!!COM-rismid: pe30004985
!!!CDT:
!!!CNT:
!!!OTL: Offertorium Nro 28
!!!PDT:
!!!AGN: Sacred
!!!SMS-siglum: PL-Kk
!!!SMS-shelfmark: Kk.I.382
!!!SMS-shelfwork: 073 W
!!!SMS-variant:
!!!SMS-altvar:
!!!NIFC-rismid: 1001142416
!!!URL-scan: http://repozytorium.nifc.pl/skany/pl-kk-nut--i-382
!!!ONB-nifc: UWAGA: Offertoria od skanu 0041 (S/T1), 0113 (T2), 0185 (A/B1), 0262 (B2)
!!!ONB-nifc: UWAGA: obsada: S/T1, A/B1, T2, B2. Skany 0052, 0185, 0124, 0273
!!!key:
**kern	**text	**kern	**text	**kern	**text	**kern	**text
*part4	*part4	*part3	*part3	*part2	*part2	*part1	*part1
*staff4	*staff4	*staff3	*staff3	*staff2	*staff2	*staff1	*staff1
*Ibass	*	*Itenor	*	*Ialto	*	*Itenor	*
*I"Basso II	*	*I"Tenore II	*	*I"Alto vel Basso I	*	*I"Soprano vel Tenore I	*
*I'B.	*	*I'T	*	*I'A	*	*I'S	*
*clefF4	*	*clefC4	*	*clefC3	*	*clefC1	*
*k[]	*	*k[]	*	*k[]	*	*k[]	*
*C:	*	*C:	*	*C:	*	*C:	*
*M3/4	*	*M3/4	*	*M3/4	*	*M3/4	*
=1	=1	=1	=1	=1	=1	=1	=1
*all\right	*	*all\right	*	*all\right	*	*all\right	*
*2\right	*	*2\right	*	*2\right	*	*2\right	*
!LO:TX:a:t=Nro 28.	!	!LO:TX:a:t=Nro 28.	!	!LO:TX:a:t=Nro 28.	!	!LO:TX:a:t=Nro 28.	!
2c\	Ec-	2c\	Ec-	2cc\	Ec-	2cc\	Ec-
4G\	-ce	4G/	-ce	4g\	-ce	4g\	-ce
=2	=2	=2	=2	=2	=2	=2	=2
2e\	pa-	2e\	pa-	2ee\	pa-	2ee\	pa-
4c\	-nis	4c\	-nis	4cc\	-nis	4cc\	-nis
=3	=3	=3	=3	=3	=3	=3	=3
(4G\	an-	4G/	an-	(4g\	an-	(4g/	an-
4E\)	.	4E/	.	4e\)	.	4e/)	.
4C/	-ge-	4C/	-ge-	4c\	-ge-	4c/	-ge-
=4	=4	=4	=4	=4	=4	=4	=4
4G\	-lo-	4G/	-lo-	4g\	-lo-	4g\	-lo-
4G\	-rum	4G/	-rum	4g\	-rum	4g\	-rum
4r	.	4r	.	4r	.	4r	.
=5	=5	=5	=5	=5	=5	=5	=5
!LO:TX:a:t=1.	!	!LO:TX:a:t=1.	!	!LO:TX:a:t=1.	!	!	!
2.r	.	2.r	.	2.r	.	(4g\	fac-
.	.	.	.	.	.	4b\)	.
!	!	!	!	!LO:TX:b:t=V&colon;S&colon;	!	!	!
.	.	.	.	.	.	4dd\	-tus
!	!	!	!	!LO:PB:g=original	!	!	!
=6	=6	=6	=6	=6	=6	=6	=6
8G\	fac-	8B\	fac-	8g\	fac-	2ff\	ci-
8G\	-tus	8B\	-tus	8g\	-tus	.	.
4B\	ci-	4d\	ci-	4g\	ci-	.	.
4c\	-bus	4c\	-bus	4g\	-bus	4ee\	-bus
!LO:LB:g=original	!	!LO:LB:g=original	!	!	!	!LO:LB:g=original	!
=7	=7	=7	=7	=7	=7	=7	=7
!	!	!	!	!LO:TX:a:t=a	!	!	!
2F\	vi-	(4A\	vi-	2a 2g\	vi-	(4ee\	vi-
.	.	4d\)	.	.	.	4dd\)	.
!	!	!	!	!LO:TX:a:t=a	!	!	!
4F#X\	-a-	4e\	-a-	4a 4g\	-a-	4cc\	-a-
=8	=8	=8	=8	=8	=8	=8	=8
4G\	-to-	4e\	-to-	4g\	-to-	4cc\	-to-
4GG/	-rum	4d\	-rum	4g\	-rum	4b\	-rum
8G\	ve-	8B\	ve-	8g\	ve-	8dd\	ve-
8G\	-re	8B\	-re	8g\	-re	8dd\	-re
=9	=9	=9	=9	=9	=9	=9	=9
4.A\	pa-	4.c\	pa-	4.f#X\	pa-	4.dd\	pa-
8A\	-nis	8c\	-nis	8f#\	-nis	8dd\	-nis
!	!	!LO:TX:b:t=P:problem=ołówkiem nadpisany tekst filiorum	!	!	!	!	!
8A\	fi-	8c\	An-	8f#\	fi-	8dd\	fi-
8A\	-li-	8c\	-ge-	8f#\	-li-	8dd\	-li-
=10	=10	=10	=10	=10	=10	=10	=10
4G\	-o-	4B\	-lo-	4g\	-o-	(8gg\L	-o-
.	.	.	.	.	.	8dd\J)	.
4G\	-rum	4B\	-rum	4g\	-rum	4dd\	-rum
!	!	!	!	!LO:LB:g=original	!	!	!
8BB/	non	8d\	non	8.g\	non	8gg\	non
8BB/	mit-	8d\	mit-	.	.	8gg\	mit-
.	.	.	.	16g\	mit-	.	.
=11	=11	=11	=11	=11	=11	=11	=11
8C/	-ten-	8c\	-ten-	8g\	-ten-	8.ee\	-ten-
8C/	-dus	8c\	-dus	8g\	-dus	.	.
.	.	.	.	.	.	16ee\	-dus
!LO:LB:g=original	!	!	!	!	!	!LO:LB:g=original	!
4D\	ca-	4B\	ca-	4g\	ca-	4dd\	ca-
4D\	-ni-	4c\	-ni-	4d\	-ni-	4f#X/	-ni-
!	!	!LO:LB:g=original	!	!	!	!	!
=12	=12	=12	=12	=12	=12	=12	=12
4GG/	-bus	4B\	-bus	4d\	-bus	4g\	-bus
4r	.	4r	.	4r	.	4r	.
8G\	in	4r	.	8g\	in	8b\	in
8G\	fi-	.	.	8a\	fi-	8cc\	fi-
=13	=13	=13	=13	=13	=13	=13	=13
!	!	!LO:TX:a:t=1.	!	!	!	!	!
4.G\	-gu-	2.r	.	4.b\	-gu-	4.dd\	-gu-
8G\	-ris	.	.	8cc\	-ris	8ee\	-ris
8G\	pre-	.	.	8b\	pre-	8dd\	pre-
8G\	-sig-	.	.	8a\	-sig-	8cc\	-sig-
=14	=14	=14	=14	=14	=14	=14	=14
4G\	-na-	4r	.	(8a\L	-na-	(8cc\L	-na-
.	.	.	.	8g\J)	.	8b\J)	.
4G\	-tur	4r	.	4g\	-tur	4b\	-tur
4G\	cum	(8B\L	cum	4r	.	(8dd\L	cum
.	.	8c\J)	.	.	.	8ee\J)	.
!	!	!	!	!LO:LB:g=original	!	!	!
=15	=15	=15	=15	=15	=15	=15	=15
!	!	!	!	!LO:TX:a:t=1.	!	!	!
4G\	J-	4d\	J-	2.r	.	4ff\	J-
8G\	-sa-	8d\	-sa-	.	.	8ff\	-sa-
8G\	-ac	8e\	-as	.	.	8gg\	-ac
!LO:LB:g=original	!	!	!	!	!	!	!
8G\	im-	8d\	im-	.	.	8ff\	im-
8G\	-mo-	8c\	-mo-	.	.	8ee\	-mo-
!	!	!	!	!	!	!LO:LB:g=original	!
=16	=16	=16	=16	=16	=16	=16	=16
4G\	-la-	(8c\L	-la-	4r	.	(8ee\L	-la-
.	.	8B\J)	.	.	.	8dd\J)	.
4G\	-tur	4B\	-tur	4r	.	4dd\	-tur
8G\	a-	8G/	ag-	8g\	ag-	8g\	ag-
8G\	-gnus	8G/	-nus	8g\	-nus	8g\	-nus
=17	=17	=17	=17	=17	=17	=17	=17
2c\	pas-	2c\	pas-	2cc\	pas-	2cc\	pas-
4G\	-ce	4G/	-ce-	4g\	-ce	4g\	-ce
=18	=18	=18	=18	=18	=18	=18	=18
2e\	pas-	2e\	pas-	2ee\	pas-	2ee\	pas-
4c\	-ce	4c\	-ce	4cc\	-ce	4cc\	-ce
!	!	!LO:LB:g=original	!	!	!	!	!
=19	=19	=19	=19	=19	=19	=19	=19
(4G\	de-	4G/	de-	(4g\	de-	(4gg\	de-
4E\)	.	4E/	.	4e\)	.	4ee\)	.
4C/	-pu-	4C/	-pu-	4c\	-pu-	4cc\	-pu-
=20	=20	=20	=20	=20	=20	=20	=20
4G\	-ta-	4G/	-ta-	4g\	-ta-	4g\	-ta-
4G\	-tur	4G/	-tur	4g\	-tur	4g\	-tur
4r	.	4r	.	4r	.	4r	.
!LO:LB:g=original	!	!	!	!	!	!	!
=21	=21	=21	=21	=21	=21	=21	=21
*^	*	*	*	*	*	*	*
!LO:TX:b:t=1.	!	!	!LO:TX:a:t=1.	!	!LO:TX:a:t=1.	!	!	!
(4G\	2.r	da-	2.r	.	2.r	.	(4g\	da-
4B\)	.	.	.	.	.	.	4b\)	.
4d\	.	-tur	.	.	.	.	4dd\	-tur
*v	*v	*	*	*	*	*	*	*
!	!	!	!	!LO:LB:g=original	!	!	!
=22	=22	=22	=22	=22	=22	=22	=22
8G\	da-	8B\	da-	8g\	da-	2ff\	man-
8G\	-tur	8B\	-tur	8g\	-tur	.	.
4B\	man-	4d\	man-	4g\	man-	.	.
4c\	-na	4c\	-na	4g\	-na	4ee\	-na
!	!	!	!	!	!	!LO:LB:g=original	!
=23	=23	=23	=23	=23	=23	=23	=23
(4F\	pa-	2G/	pa-	(8g\L	pa-	(8ee\L	pa-
.	.	.	.	8f\J	.	8dd\J	.
4G\)	.	.	.	4e\)	.	4cc\)	.
4G\	-tri-	4B\	-tri-	4g\	-tri-	4dd\	-tri-
=24	=24	=24	=24	=24	=24	=24	=24
2C/	-bus	(4B\	-bus	2g\	-bus	(4dd\	-bus
.	.	4c\)	.	.	.	4ee\)	.
4r	.	4r	.	4r	.	4r	.
=25	=25	=25	=25	=25	=25	=25	=25
!	!	!LO:TX:a:t=1.	!	!LO:TX:a:t=1.	!	!LO:TX:a:t=1.	!
(4C/	da-	2.r	.	2.r	.	2.r	.
4E/)	.	.	.	.	.	.	.
4G\	-tur	.	.	.	.	.	.
=26	=26	=26	=26	=26	=26	=26	=26
2B-X\	man-	8c\	da-	8g\	da-	8ee\	da-
.	.	8c\	-tur	8g\	-tur	8ee\	-tur
.	.	4c\	man-	4g\	man-	4ee\	man-
(8A\L	-na	(8c\L	-na	(8f\L	-na	4ff\	-na
8F\J)	.	8d\J)	.	8a\J)	.	.	.
!LO:LB:g=original	!	!LO:LB:g=original	!	!	!	!	!
=27	=27	=27	=27	=27	=27	=27	=27
2G\	pa-	(4c\	pa-	2g\	pa-	(4ee\	pa-
.	.	4e\)	.	.	.	4cc\)	.
4GG/	-tri-	4d\	-tri-	4f\	-tri-	4b\	-tri-
!	!	!	!	!LO:LB:g=original	!	!	!
=28	=28	=28	=28	=28	=28	=28	=28
4C/	-bus	4c\	-bus	4e\	-bus	4cc\	-bus
4r	.	4r	.	4r	.	4r	.
8G\	da-	8B\	da-	8g\	da-	8dd\	da-
8G\	-tur	8B\	-tur	8g\	-tur	8dd\	-tur
!	!	!	!	!	!	!LO:LB:g=original	!
=29	=29	=29	=29	=29	=29	=29	=29
4c\	man-	4c\	man-	4g\	man-	4ee\	man-
4E\	-na	4c\	-na	4g\	-na	4gg\	-na
8G\	da-	8d\	da-	8f\	da-	8b\	da-
8G\	-tur	8d\	-tur	8f\	-tur	8b\	-tur
=30	=30	=30	=30	=30	=30	=30	=30
2A\	man-	2c\	man-	(4e\	man-	2cc\	man-
.	.	.	.	4f\)	.	.	.
4A-X\	-na	4c\	-na	4f#X\	-na	4cc\	-na
=31	=31	=31	=31	=31	=31	=31	=31
2G\	ma-	(4e\	pa-	2g\	pa-	(4cc\	pa-
.	.	4c\)	.	.	.	4ee\)	.
4GG/	-tri-	4B\	-tri-	4fn\	-tri-	4dd\	-tri-
=32	=32	=32	=32	=32	=32	=32	=32
4C/	-bus	4c\	-bus	4e\	-bus	4cc\	-bus
4r	.	4r	.	4r	.	4r	.
8G\	da-	8B\	da-	8g\	da-	8dd\	da-
!	!	!LO:TX:b:t=V&colon; S&colon;	!	!	!	!	!
8G\	-tur	8B\	-tur	8g\	-tur	8dd\	-tur
!LO:LB:g=original	!	!LO:PB:g=original	!	!LO:LB:g=original	!	!	!
=33	=33	=33	=33	=33	=33	=33	=33
4c\	man-	4c\	man-	4g\	man-	4ee\	man-
4E\	-na	4c\	-na	4g\	-na	4gg\	-na
8G\	da-	8d\	da-	8f\	da-	8b\	da-
8G\	-tur	8d\	-tur	8f\	-tur	8b\	-tur
!	!	!	!	!	!	!LO:LB:g=original	!
=34	=34	=34	=34	=34	=34	=34	=34
2A\	man-	2c\	man-	(4e\	man-	2cc\	man-
.	.	.	.	4f\)	.	.	.
4A-X\	-na	4c\	-na	4f#X\	-na	4cc\	-na
=35	=35	=35	=35	=35	=35	=35	=35
2G\	pa-	(4e\	pa-	2g\	pa-	(4cc\	pa-
.	.	4c\)	.	.	.	4ee\)	.
4GG/	-tri-	4B\	-tri-	4fn\	-tri-	4dd\	-tri-
=36	=36	=36	=36	=36	=36	=36	=36
2C/	-bus.	2.c\	-bus.	2e\	-bus.	2cc\	-bus.
4r	.	.	.	4r	.	4r	.
==	==	==	==	==	==	==	==
*-	*-	*-	*-	*-	*-	*-	*-
!!!system-decoration: [(s1,s2,s3,s4)]
!!!AIN: 1 alto 1 bass 2 tenor
!!!ENC: Marta Lawrence
!!!ENC: Berenika Jozajtis
!!!END: 2021-02-01
